!!!OTL: 351. Der Tod und der Trinker. / Neuere Studentenmelodie.
!!!ODT: 1827
!!!ARE: Europa, Mitteleuropa, Deutschland
!!!SCT: B0351A
!!!TXL: @@DE
!!!YEM: Copyright 1995, estate of Helmut Schaffrath.
**kern	**text
*ICvox	*
*Ivox	*
*clefG2	*
*M3/4	*
*k[f#]	*
*G:	*
=1	=1
!LO:TX:a:t=Gemäßigt.	!
{8g	Ge-
8g	-ſtern,
8gL	Brü-
8f#J	.
4g	-der,
=2	=2
8a	könnt
8b/	ihrs
4a	glau-
4g}	-ben,
=3	=3
{8b	ge-
8b	-ſtern
8bL	bei
8aJ	.
4b	dem
=4	=4
8cc	Saft
8dd	der
4cc	Trauben,
4b}	.
=5	=5
{8dd	(ſtellt
8dd	euch
8ddL	mein
8bJ	.
8gL	Ent-
8f#J	.
=6	=6
8.e	-ſe-
16e	-tʒen
2e}	für:)
=7	=7
{8cc	ge-
8b	-ſtern
8aL	kam
8ee	.
8ddJ	.
8cc#	der
=8	=8
8dd	Tod
8dd	ʒu
8dd;L	mir!
(8cc	.
8b	.
8aJ)}	.
=9	=9
!LO:TX:a:t=Chor.	!
{8g	Hopp,
8g	hopp,
4g	hopp!
4gg	Vi-
=10	=10
16ee	-val-
16ee	-le-
16ee	-ral-
16ee	-le-
4ee}	-ra,
{4dd	vi-
=11	=11
8cc	-val-
8b	-le-
8a	-ral-
8b/	-le-
16ddL	-ralleralle-
16ccJ	.
16bL	.
16aJ	.
=12	=12
8g	-ral-
8b/	-la-
4g	-la.
4r}	.
==	==
!!!AGN: Trink - Lied
!!!ONB: ESAC (Essen Associative Code) Database: BOEHME
!!!AMT: simple triple
!!!AIN: vox
!!!EED: Helmut Schaffrath
!!!EEV: 1.0
!!!GTL: Wein- und Trinklieder
!!!Text: G. E. Lessing
!!!URL-scan: https://archive.org/details/BoehmeVtLieder1895/page/n293/mode/2up
!!!ENC: Anna Maria Matuszewska
!!!EEV: 2024/05/07
*-	*-
